src/topics/icons/deppbot.svg

<svg height="270" preserveAspectRatio="xMidYMid" viewBox="0 0 256 270" width="256" xmlns="http://www.w3.org/2000/svg"><path d="m255.622586 217.106178c-.27048-5.3467-2.604158-10.246794-6.560716-13.813357-2.176421-1.968844-4.730257-3.358986-7.453929-4.189297l-.503218-9.743575c.201287-.194997.421445-.345963.597572-.559831 2.346258-2.578996 3.535112-5.919111 3.358986-9.410192-.364834-6.94442-6.095238-12.372893-13.045949-12.372893l-.666765.006291c-1.88707.106934-3.673497.622733-5.308958 1.459334l-26.551084-10.68711 7.019903-7.082805 14.807214-4.201877c8.988746-3.264632 8.988746-3.264632 10.750012-14.215932 0 0 3.440759-17.795076 3.440759-27.324783 0-29.8974884-12.215637-53.4355492-31.897784-69.4504886l6.824906-13.1151407c2.585287-4.9818665-3.396727-13.23465531-13.34788-18.4052288-9.976313-5.18315397-20.160204-5.35299032-22.745491-.36483366l-6.881517 13.23465526c-12.209347-3.6672072-25.469163-5.6234704-39.383164-5.6360509h-.044032-.050322c-13.951742.0125805-27.236719 1.9877144-39.4649366 5.6549216l-6.9003882-13.25352596c-2.5789965-4.98186643-12.7565974-4.81832031-22.7329107.36483366-9.9574426 5.17057349-15.9331662 13.4233623-13.3415893 18.4052288l6.8437761 13.1654626c-19.6569856 16.0086491-31.8411715 39.5341295-31.8411715 69.4001667 0 9.535997 3.4407588 27.324783 3.4407588 27.324783 1.7738463 10.95759 1.7738463 10.95759 10.7563025 14.215932l14.8072141 4.201877 6.9884515 7.070225-26.6139859 10.69969c-1.629171-.842891-3.4093076-1.358691-5.3026685-1.459334l-.6667649-.006291c-6.9507101 0-12.6748243 5.422183-13.039658 12.372893-.1761266 3.491081 1.0127279 6.831196 3.3464052 9.410192.1761266.213868.4088653.364834.6038626.559831l-.509509 9.749865c-2.7173817.849182-5.26492706 2.214163-7.4413485 4.195587-3.96913854 3.553983-6.30281587 8.460367-6.57958622 13.800777l-.33338248 6.887808 13.763035.691925.3585435-6.887807c.0754828-1.654332.7988599-3.151408 2.031746-4.27736 1.2328861-1.107082 2.7928645-1.666913 4.4534866-1.572559 1.654332.094353 3.1702787.81144 4.2647796 2.031746 1.1133717 1.220305 1.6669124 2.792864 1.5914296 4.447196l-.3585434 6.900388 13.7756155.704507.3333825-6.875228c.2893508-5.340409-1.522237-10.44179-5.1013809-14.423509-1.9688437-2.195292-4.3591332-3.811883-6.9758711-4.925255l.3899946-7.535702c4.7365473-1.767556 8.1898865-6.195881 8.4540764-11.548872 0-.075483-.0062903-.132095 0-.220158l15.794781-6.346848-7.4727996 29.249595c-.2327387 1.459335-.5283798 2.000295 0 4.27736 0 0 12.159025 33.237604 12.8635314 35.187577.723377 1.931102 1.2014349 2.541255 3.7867217 3.352695 2.352548.660475 4.7491277 1.176274 7.1205464 1.729815 0 0 2.082068 7.057644 2.7362524 9.278097.559831 1.899651.9120842 2.428031 3.0759251 3.182859 16.9081528 5.8625 34.7032287 9.101971 53.1084577 9.101971h.050322.044031c18.405229 0 36.187725-3.245761 53.108458-9.101971 2.176421-.754828 2.516094-1.283208 3.063344-3.182859.654185-2.220453 2.742543-9.278097 2.742543-9.278097 2.365128-.559831 4.780579-1.06934 7.114256-1.729815 2.597867-.81144 3.082216-1.427883 3.786722-3.352695.710797-1.949973 12.876112-35.187577 12.876112-35.187577.522089-2.270775.226448-2.811735-.012581-4.27736l-7.453929-29.218143 15.694138 6.309106c0 .088063-.018871.144675-.018871.220158.283061 5.35299 3.74269 9.768736 8.479237 11.548872l.389995 7.535702c-2.629319 1.113372-5.013318 2.755123-6.982161 4.925255-3.572854 3.981719-5.378152 9.083099-5.107672 14.423509l.352254 6.875228 13.769325-.704507-.352253-6.900388c-.094354-1.654332.465477-3.226891 1.572559-4.447196 1.107081-1.220306 2.623028-1.943683 4.28365-2.031747 1.666912-.056612 3.226891.484349 4.453487 1.572559 1.226595 1.125952 1.943682 2.623029 2.031746 4.27736l.345962 6.887808 13.775616-.691926z" fill="#00ade2"/><path d="m183.98154 87.9728656c0 6.930272-5.622554 12.5528264-12.552826 12.5528264-6.930273 0-12.540192-5.6225544-12.540192-12.5528264 0-6.9365895 5.616237-12.5591438 12.540192-12.5591438 6.930272 0 12.552826 5.6225543 12.552826 12.5591438zm-98.8685117-35.7948234c-5.868936 0-11.3967282 1.4719721-16.2611853 4.0242327 0-.0947622.0505398-.1642544.0505398-.2463816 0-3.9863279-3.2282306-7.1892886-7.1892885-7.1892886-3.9863279 0-7.2019236 3.2029607-7.2019236 7.1892886 0 3.3482627 2.3690538 6.0521427 5.4898873 6.8418273-6.1911272 6.3301118-10.0195181 14.9787375-10.0195181 24.5181274 0 19.369384 15.7557871 35.125171 35.1314884 35.125171 19.3693837 0 35.1314887-15.755787 35.1314887-35.125171 0-19.3757013-15.755787-35.1378058-35.1314887-35.1378058zm0 62.7199098c-15.2188016 0-27.6010561-12.375937-27.6010561-27.5884215 0-15.225119 12.375937-27.601056 27.6010561-27.601056 15.2124837 0 27.6010557 12.375937 27.6010557 27.601056 0 15.2124845-12.388572 27.5884215-27.6010557 27.5884215zm54.2292207 113.39239h-22.149074c-6.03319 0-10.935552-4.984489-10.935552-11.112441v-14.94715c0-6.13427 4.902362-11.106125 10.935552-11.106125h21.504691v-11.807364c0-3.20296 2.596483-5.774173 5.793127-5.774173 3.190325 0 5.793126 2.571213 5.793126 5.774173v37.860639c.006317 6.127952-4.90868 11.112441-10.94187 11.112441zm-21.498374-11.579935h20.860309v-13.993211h-20.860309zm-20.1780204-128.7375414c0 6.930272-5.6225543 12.5528264-12.5401914 12.5528264-6.9492245 0-12.5528264-5.6225544-12.5528264-12.5528264 0-6.9365895 5.6099194-12.5591438 12.5528264-12.5591438 6.9113196 0 12.5401914 5.6225543 12.5401914 12.5591438z" fill="#fff"/></svg>

<?xml version="1.0" encoding="UTF-8" standalone="no"?>
<svg width="256px" height="270px" viewBox="0 0 256 270" version="1.1" xmlns="http://www.w3.org/2000/svg" xmlns:xlink="http://www.w3.org/1999/xlink" preserveAspectRatio="xMidYMid">
	<g>
		<path d="M255.622586,217.106178 C255.352106,211.759478 253.018428,206.859384 249.06187,203.292821 C246.885449,201.323977 244.331613,199.933835 241.607941,199.103524 L241.104723,189.359949 C241.30601,189.164952 241.526168,189.013986 241.702295,188.800118 C244.048553,186.221122 245.237407,182.881007 245.061281,179.389926 C244.696447,172.445506 238.966043,167.017033 232.015332,167.017033 L231.348567,167.023324 C229.461497,167.130258 227.67507,167.646057 226.039609,168.482658 L199.488525,157.795548 L206.508428,150.712743 L221.315642,146.510866 C230.304388,143.246234 230.304388,143.246234 232.065654,132.294934 C232.065654,132.294934 235.506413,114.499858 235.506413,104.970151 C235.506413,75.0726626 223.290776,51.5346018 203.608629,35.5196624 L210.433535,22.4045217 C213.018822,17.4226552 207.036808,9.16986639 197.085655,3.9992929 C187.109342,-1.18386107 176.925451,-1.35369742 174.340164,3.63445924 L167.458647,16.8691145 C155.2493,13.2019073 141.989484,11.2456441 128.075483,11.2330636 L128.031451,11.2330636 L127.981129,11.2330636 C114.029387,11.2456441 100.74441,13.220778 88.5161924,16.8879852 L81.6158042,3.63445924 C79.0368077,-1.34740719 68.8592068,-1.18386107 58.8828935,3.9992929 C48.9254509,9.16986639 42.9497273,17.4226552 45.5413042,22.4045217 L52.3850803,35.5699843 C32.7280947,51.5786334 20.5439088,75.1041138 20.5439088,104.970151 C20.5439088,114.506148 23.9846676,132.294934 23.9846676,132.294934 C25.7585139,143.252524 25.7585139,143.252524 34.7409701,146.510866 L49.5481842,150.712743 L56.5366357,157.782968 L29.9226498,168.482658 C28.2934788,167.639767 26.5133422,167.123967 24.6199813,167.023324 L23.9532164,167.017033 C17.0025063,167.017033 11.2783921,172.439216 10.9135584,179.389926 C10.7374318,182.881007 11.9262863,186.221122 14.2599636,188.800118 C14.4360902,189.013986 14.6688289,189.164952 14.8638262,189.359949 L14.3543172,199.109814 C11.6369355,199.958996 9.08939014,201.323977 6.9129687,203.305401 C2.94383016,206.859384 0.610152833,211.765768 0.333382476,217.106178 L0,223.993986 L13.763035,224.685911 L14.1215785,217.798104 C14.1970613,216.143772 14.9204384,214.646696 16.1533245,213.520744 C17.3862106,212.413662 18.946189,211.853831 20.6068111,211.948185 C22.2611431,212.042538 23.7770898,212.759625 24.8715907,213.979931 C25.9849624,215.200236 26.5385031,216.772795 26.4630203,218.427127 L26.1044769,225.327515 L39.8800924,226.032022 L40.2134749,219.156794 C40.5028257,213.816385 38.6912379,208.715004 35.112094,204.733285 C33.1432503,202.537993 30.7529608,200.921402 28.1362229,199.80803 L28.5262175,192.272328 C33.2627648,190.504772 36.716104,186.076447 36.9802939,180.723456 C36.9802939,180.647973 36.9740036,180.591361 36.9802939,180.503298 L52.7750749,174.15645 L45.3022753,203.406045 C45.0695366,204.86538 44.7738955,205.40634 45.3022753,207.683405 C45.3022753,207.683405 57.4613003,240.921009 58.1658067,242.870982 C58.8891837,244.802084 59.3672416,245.412237 61.9525284,246.223677 C64.3050764,246.884152 66.7016561,247.399951 69.0730748,247.953492 C69.0730748,247.953492 71.1551428,255.011136 71.8093272,257.231589 C72.3691582,259.13124 72.7214114,259.65962 74.8852523,260.414448 C91.7934051,266.276948 109.588481,269.516419 127.99371,269.516419 L127.99371,269.516419 L128.044032,269.516419 L128.088063,269.516419 L128.088063,269.516419 C146.493292,269.516419 164.275788,266.270658 181.196521,260.414448 C183.372942,259.65962 183.712615,259.13124 184.259865,257.231589 C184.91405,255.011136 187.002408,247.953492 187.002408,247.953492 C189.367536,247.393661 191.782987,246.884152 194.116664,246.223677 C196.714531,245.412237 197.19888,244.795794 197.903386,242.870982 C198.614183,240.921009 210.779498,207.683405 210.779498,207.683405 C211.301587,205.41263 211.005946,204.87167 210.766917,203.406045 L203.312988,174.187902 L219.007126,180.497008 C219.007126,180.585071 218.988255,180.641683 218.988255,180.717166 C219.271316,186.070156 222.730945,190.485902 227.467492,192.266038 L227.857487,199.80174 C225.228168,200.915112 222.844169,202.556863 220.875326,204.726995 C217.302472,208.708714 215.497174,213.810094 215.767654,219.150504 L216.119908,226.025732 L229.889233,225.321225 L229.53698,218.420837 C229.442626,216.766505 230.002457,215.193946 231.109539,213.973641 C232.21662,212.753335 233.732567,212.029958 235.393189,211.941894 C237.060101,211.885282 238.62008,212.426243 239.846676,213.514453 C241.073271,214.640405 241.790358,216.137482 241.878422,217.791813 L242.224384,224.679621 L256,223.987695 L255.622586,217.106178 L255.622586,217.106178 Z" fill="#00ADE2"></path>
		<path d="M183.98154,87.9728656 C183.98154,94.9031376 178.358986,100.525692 171.428714,100.525692 C164.498441,100.525692 158.888522,94.9031376 158.888522,87.9728656 C158.888522,81.0362761 164.504759,75.4137218 171.428714,75.4137218 C178.358986,75.4137218 183.98154,81.0362761 183.98154,87.9728656 Z M85.1130283,52.1780422 C79.2440923,52.1780422 73.7163001,53.6500143 68.851843,56.2022749 C68.851843,56.1075127 68.9023828,56.0380205 68.9023828,55.9558933 C68.9023828,51.9695654 65.6741522,48.7666047 61.7130943,48.7666047 C57.7267664,48.7666047 54.5111707,51.9695654 54.5111707,55.9558933 C54.5111707,59.304156 56.8802245,62.008036 60.001058,62.7977206 C53.8099308,69.1278324 49.9815399,77.7764581 49.9815399,87.315848 C49.9815399,106.685232 65.737327,122.441019 85.1130283,122.441019 C104.482412,122.441019 120.244517,106.685232 120.244517,87.315848 C120.244517,67.9401467 104.48873,52.1780422 85.1130283,52.1780422 Z M85.1130283,114.897952 C69.8942267,114.897952 57.5119722,102.522015 57.5119722,87.3095305 C57.5119722,72.0844115 69.8879092,59.7084745 85.1130283,59.7084745 C100.325512,59.7084745 112.714084,72.0844115 112.714084,87.3095305 C112.714084,102.522015 100.325512,114.897952 85.1130283,114.897952 Z M139.342249,228.290342 L117.193175,228.290342 C111.159985,228.290342 106.257623,223.305853 106.257623,217.177901 L106.257623,202.230751 C106.257623,196.096481 111.159985,191.124626 117.193175,191.124626 L138.697866,191.124626 L138.697866,179.317262 C138.697866,176.114302 141.294349,173.543089 144.490993,173.543089 C147.681318,173.543089 150.284119,176.114302 150.284119,179.317262 L150.284119,217.177901 C150.290436,223.305853 145.375439,228.290342 139.342249,228.290342 Z M117.843875,216.710407 L138.704184,216.710407 L138.704184,202.717196 L117.843875,202.717196 L117.843875,216.710407 Z M97.6658546,87.9728656 C97.6658546,94.9031376 92.0433003,100.525692 85.1256632,100.525692 C78.1764387,100.525692 72.5728368,94.9031376 72.5728368,87.9728656 C72.5728368,81.0362761 78.1827562,75.4137218 85.1256632,75.4137218 C92.0369828,75.4137218 97.6658546,81.0362761 97.6658546,87.9728656 Z" fill="#FFFFFF"></path>
	</g>
</svg>
